X:1
T:The Tattoo
L:1/8
M:4/4
I:linebreak $
K:A
V:1 treble 
V:1
"E" EGB E2 GBd |"F" =cBAc"E" BAGB | EGB E2 GBd |"F" =cBAc"E" B2 B2 |"E" EGB E2 GBd | %5
"F" =cBAc"E" BAGE |$"Dm" DE^E G2 E=E^E | GA"E"B=c"Am" A2 A2 :|[K:Amin]"Am" a^ga e2 dcA | %9
"Dm" dfed"E" cd B2 |"Am" Aca e2 dcA |$"Dm" defa"E" ^gfec |"Am" Aca e2 dcA |"Dm" dfed"E" cdBA | %14
"Dm" DEF ^G2 FEF |"E" ^GABc"Am" A4 || %16
